assets/img/birtual.svg

<?xml version="1.0" encoding="UTF-8"?>
<svg width="50px" height="50px" viewBox="0 0 50 50" version="1.1" xmlns="http://www.w3.org/2000/svg" xmlns:xlink="http://www.w3.org/1999/xlink">
    <!-- Generator: Sketch 64 (93537) - https://sketch.com -->
    <title>360-degree</title>
    <desc>Created with Sketch.</desc>
    <g id="Welcome" stroke="none" stroke-width="1" fill="none" fill-rule="evenodd">
        <g id="lpw-addons-1.1" transform="translate(-380.000000, -726.000000)" fill-rule="nonzero">
            <g id="360-degree" transform="translate(380.000000, 726.000000)">
                <path d="M8.42625386,33.2557825 L44.803049,33.2557825 C47.183964,33.2557825 49.2396164,31.5531269 49.6439652,29.2068059 C49.6463173,29.1930859 49.6486693,29.1794639 49.6510213,29.1657438 C52.1383645,14.5836069 41.059441,0.00872201849 24.990053,0.00872201849 C18.9951843,0.00872201849 13.5001166,2.11778449 9.1987895,5.63011194 C9.1961435,5.63226794 9.19349749,5.63442394 9.19085148,5.63657995 C8.70085045,6.0372048 8.42282362,6.64059208 8.42282362,7.27357542 C8.42497986,12.1146877 8.42625386,33.2557825 8.42625386,33.2557825 L8.42625386,33.2557825 Z" id="Path" fill="#F73C9A"></path>
                <path d="M49.6503353,29.1657438 C40.573752,36.5935716 27.5237504,36.7036258 18.3230988,29.4068243 C18.3145728,29.3961423 8.84843876,22.7936723 8.84843876,9.81668081 C8.84843876,8.39058179 8.96986102,6.99260882 9.1997695,5.63099394 C3.58229959,10.2179917 -2.84217094e-14,17.1972725 -2.84217094e-14,24.998775 C-2.84217094e-14,37.9756685 9.46613407,44.5781385 9.47466009,44.5889185 C18.7129437,51.9154141 31.8325255,51.7756658 40.9134207,44.2574818 L40.9134207,44.2590498 C43.6884926,41.961337 46.0014935,39.0336788 47.5978189,35.6570816 C47.5976229,35.6572776 47.5973289,35.6574736 47.5971329,35.6576696 C48.604183,33.5259691 49.2785225,31.3457585 49.6503353,29.1657438 Z" id="Path" fill="#E0248B"></path>
                <g id="Group" transform="translate(2.548005, 10.878023)">
                    <path d="M42.4209579,24.2072273 L44.828431,9.06247121 C44.828431,7.00172284 43.6230285,5.12688087 41.7486765,4.27045705 C31.9439517,-0.209622444 20.9594024,-1.10514834 10.6826106,1.58260536 L10.6826106,24.2072273 L42.4209579,24.2072273 L42.4209579,24.2072273 Z" id="Path" fill="#05CDFF"></path>
                    <path d="M10.9456432,24.4523258 C10.9456432,16.8525077 10.9456432,9.25278762 10.9456432,1.6529695 C10.9456432,1.60651741 10.9469172,1.56026131 10.9481912,1.51400521 C8.28679957,2.19324465 5.67156602,3.1115066 3.13541865,4.27035905 C1.26028267,5.12717487 0.055664118,7.00074284 0.055664118,9.06237321 L0.055664118,31.8617295 C13.9960957,24.1979173 30.8880975,24.1979173 44.828431,31.8617295 L44.828431,20.1483527 C33.5354751,17.2654806 21.4091254,18.7000076 10.9456432,24.4523258 Z" id="Path" fill="#0091C8"></path>
                    <path d="M38.3445413,18.0190042 L38.3445413,5.32493929 C30.4078965,1.72646966 21.5477957,0.959324034 13.214838,3.01478039 L13.214838,18.0190042 L38.3445413,18.0190042 Z" id="Path" fill="#A0EBFF"></path>
                    <path d="M44.4973863,33.513131 C44.6714347,33.0950622 44.7838409,32.6236812 44.828431,32.094578 C44.828431,24.4275318 44.828431,16.7605835 44.828431,9.09353728 C44.5847045,11.9808194 42.3452038,13.1630939 38.8646284,13.209056 L38.8646284,33.513131 L44.4973863,33.513131 Z" id="Path" fill="#A0EBFF"></path>
                    <path d="M38.3445413,17.6335694 C36.7097018,17.2515646 35.0555563,16.978242 33.3931788,16.8131116 C31.6399551,16.6389653 30.0818498,15.6198611 29.234834,14.0749858 C28.8525352,13.3776164 28.4647483,12.6799529 28.1349776,12.0900896 C27.6932907,11.299914 27.7129888,10.3299079 28.1977958,9.56540828 C28.5619646,8.99122506 28.7491449,8.29395358 28.6827988,7.54983801 C28.5437365,5.9908507 27.2685578,4.74350406 25.7071205,4.63550783 C23.8265945,4.50546155 22.2606492,5.9925167 22.2606492,7.84530863 C22.2606492,9.02591713 22.8964745,10.0579573 23.8443325,10.6178325 C24.6097142,11.0699075 24.8288426,12.0801916 24.3474656,12.8276392 C23.9880989,13.3857504 23.6104061,13.9690476 23.3256175,14.4012285 C21.7468341,11.7659049 20.1608967,9.25249362 18.5824074,6.86138655 C18.0555583,6.05621684 16.8127196,6.20135515 16.2908685,7.12902511 C16.2812645,7.14588115 16.2716605,7.16273719 16.2620565,7.17969122 C15.4944208,8.53111409 13.4336725,7.98956494 13.4336725,6.43537964 L13.4336725,2.96039028 C13.19612,3.0175244 12.9588615,3.07612852 12.722191,3.13777065 L12.722191,3.13522265 C12.7121949,3.13777065 12.7610971,3.12434462 12.4644504,3.20392079 L12.4644504,3.2053908 C10.4131101,3.75536796 8.3962658,4.47586549 6.43665365,5.37119539 C6.39069155,5.39216743 6.34521945,5.41411948 6.30013936,5.43656153 L6.30013936,27.0255173 C16.4584489,22.3358154 28.1620257,22.2989673 38.3445413,26.9154631 L38.3445413,18.862002 C38.3432673,18.861708 38.3422873,18.861512 38.3412093,18.861218 L38.3445413,18.861218 L38.3445413,17.6335694 L38.3445413,17.6335694 Z" id="Path" fill="#05CDFF"></path>
                    <path d="M39.170879,28.5896986 L39.170879,13.203078 C38.0691607,13.2398281 36.8352401,13.1558419 35.4944992,12.9703275 L35.4944992,35.9713683 C40.3383555,36.6415917 43.7872768,35.9855783 44.6431126,33.1013342 C44.6282166,33.1042742 44.6133206,33.1072142 44.5983265,33.1100562 C41.7786646,33.6510173 39.170879,31.4608107 39.170879,28.5896986 Z" id="Path" fill="#05CDFF"></path>
                    <circle id="Oval" fill="#FFC305" cx="26.9413351" cy="7.04053093" r="3.21773882"></circle>
                    <g transform="translate(9.310020, 5.488012)" id="Path">
                        <path d="M11.4598503,14.4589507 C13.6506449,10.850975 15.8514356,7.47770985 18.0234142,4.3392532 C18.4292331,3.74899795 19.3848331,3.93118033 19.7857519,4.67509991 C21.9394045,8.63822831 24.053857,12.8361652 26.0905953,17.2687146 C26.4873002,18.1389565 26.0247392,18.7854638 25.2568095,18.4541251 C22.9286186,17.456189 20.5075235,16.7589175 18.0494823,16.3623107 C16.1639583,16.05802 11.0318834,15.1680802 11.4598503,14.4589507 L11.4598503,14.4589507 Z" fill="#FFFFFF"></path>
                        <path d="M0.257936547,16.7986076 C2.88532212,11.0876455 5.64157796,5.76682223 8.4439919,0.836235773 C8.96584301,-0.0914341938 10.2086816,-0.236572502 10.7355308,0.568597205 C13.5567607,4.84209227 16.4017068,9.50582415 19.1874607,14.5596949 C19.7308718,15.554103 19.0956345,16.5342031 18.0496783,16.3623107 C12.4491624,15.4586508 6.65695811,16.1156442 1.33515483,18.3335849 C0.341726724,18.7508698 -0.253330537,17.921396 0.257936547,16.7986076 Z" fill="#0091C8"></path>
                    </g>
                    <path d="M9.38959591,33.1172102 L9.38959591,12.9704255 C6.91812867,13.3124462 4.8108302,13.3081342 3.22459884,12.8398892 L3.22459884,33.1172102 L9.38959591,33.1172102 Z" id="Path" fill="#A0EBFF"></path>
                    <path d="M3.42167725,28.7095529 C3.42167725,23.4382197 3.42167725,18.1668865 3.42167725,12.8955533 C1.44873707,12.3742902 0.231672491,11.1785897 0.055664118,9.09363528 L0.055664118,32.094676 C0.371028787,35.830444 4.02545653,36.7137198 9.38959591,35.9714663 L9.38959591,32.8251696 C5.90666852,32.7800895 3.66550177,31.597913 3.42167725,28.7095529 L3.42167725,28.7095529 Z" id="Path" fill="#05CDFF"></path>
                </g>
            </g>
        </g>
    </g>
</svg>

<svg width="50" height="50" xmlns="http://www.w3.org/2000/svg"><g fill="none"><path d="M8.426 33.256h36.377c2.381 0 4.437-1.703 4.841-4.05l.007-.04C52.138 14.584 41.059.009 24.991.009A24.88 24.88 0 009.198 5.63l-.008.007a2.11 2.11 0 00-.768 1.637c.002 4.84.003 25.982.003 25.982z" fill="#F73C9A"/><path d="M49.65 29.166c-9.076 7.428-22.126 7.538-31.327.24-.008-.01-9.475-6.612-9.475-19.59 0-1.425.122-2.823.352-4.185C3.582 10.218 0 17.197 0 24.999c0 12.977 9.466 19.58 9.475 19.59 9.238 7.326 22.358 7.187 31.438-.332v.002a25.133 25.133 0 006.685-8.602 25.026 25.026 0 002.052-6.491z" fill="#E0248B"/><g transform="translate(2.548 10.878)"><path d="M42.421 24.207l2.407-15.145a5.273 5.273 0 00-3.08-4.792 46.475 46.475 0 00-31.065-2.687v22.624H42.42z" fill="#05CDFF"/><path d="M10.946 24.452V1.653c0-.046 0-.093.002-.139A46.41 46.41 0 003.135 4.27a5.27 5.27 0 00-3.08 4.792v22.8a46.468 46.468 0 0144.773 0V20.148a46.47 46.47 0 00-33.882 4.304z" fill="#0091C8"/><path d="M38.345 18.019V5.325a38.524 38.524 0 00-25.13-2.31v15.004h25.13zm6.152 15.494c.174-.418.287-.89.331-1.418V9.094c-.243 2.887-2.483 4.07-5.963 4.115v20.304h5.632z" fill="#A0EBFF"/><path d="M38.345 17.634a38.476 38.476 0 00-4.952-.82 5.337 5.337 0 01-4.158-2.739c-.382-.697-.77-1.395-1.1-1.985a2.468 2.468 0 01.063-2.525 3.21 3.21 0 00.485-2.015 3.227 3.227 0 00-2.976-2.914 3.218 3.218 0 00-1.863 5.982c.766.452.985 1.462.503 2.21-.359.558-.737 1.141-1.021 1.573a203.742 203.742 0 00-4.744-7.54c-.526-.805-1.77-.66-2.291.268l-.029.05c-.768 1.352-2.828.81-2.828-.744V2.96c-.238.058-.475.116-.712.178v-.003l-.258.069v.001A38.476 38.476 0 006.3 5.437v21.589a38.525 38.525 0 0132.045-.11v-8.054h-.004.004v-1.228z" fill="#05CDFF"/><path d="M39.17 28.59V13.203c-1.1.037-2.335-.047-3.676-.233v23.001c4.844.67 8.293.015 9.15-2.87l-.046.01c-2.82.54-5.427-1.65-5.427-4.521z" fill="#05CDFF"/><circle fill="#FFC305" cx="26.941" cy="7.041" r="3.218"/><path d="M20.77 19.947a202.232 202.232 0 016.563-10.12c.406-.59 1.362-.408 1.763.336A210.08 210.08 0 0135.4 22.757c.396.87-.066 1.516-.834 1.185a30.706 30.706 0 00-7.207-2.092c-1.886-.304-7.018-1.194-6.59-1.903z" fill="#FFF"/><path d="M9.568 22.287a209.53 209.53 0 018.186-15.963c.522-.927 1.765-1.073 2.292-.267a205.17 205.17 0 018.451 13.99c.544.995-.091 1.975-1.137 1.803a30.727 30.727 0 00-16.715 1.972c-.993.417-1.588-.413-1.077-1.535z" fill="#0091C8"/><path d="M9.39 33.117V12.97c-2.472.342-4.58.338-6.165-.13v20.277H9.39z" fill="#A0EBFF"/><path d="M3.422 28.71V12.896C1.449 12.374.232 11.179.056 9.094v23c.315 3.736 3.97 4.62 9.334 3.877v-3.146c-3.483-.045-5.724-1.227-5.968-4.115z" fill="#05CDFF"/></g></g></svg>
